images/change.svg

<svg height="250" viewBox="0 0 250 250" width="250" xmlns="http://www.w3.org/2000/svg"><path d="m193.574219 152.4375c-11.371094 24.847656-36.675781 40.84375-64.582031 40.820312-38.914063 0-70.558594-30.605468-70.558594-68.21875 0-37.617187 31.644531-68.222656 70.558594-68.222656 28.046874-.019531 53.453124 16.128906 64.75 41.15625l56.285156-16.210937c-18.953125-49.125-67.207032-81.609375-121.035156-81.480469-71.238282 0-128.992188 55.835938-128.992188 124.71875s57.753906 124.71875 128.992188 124.71875c53.679687.109375 101.820312-32.207031 120.867187-81.140625zm0 0" fill="#3edbb5"/></svg>

<svg xmlns="http://www.w3.org/2000/svg" xmlns:xlink="http://www.w3.org/1999/xlink" width="250px" height="250px" viewBox="0 0 250 250" version="1.1">
<g id="surface1">
<path style=" stroke:none;fill-rule:nonzero;fill:rgb(24.313726%,85.882354%,70.980394%);fill-opacity:1;" d="M 193.574219 152.4375 C 182.203125 177.285156 156.898438 193.28125 128.992188 193.257812 C 90.078125 193.257812 58.433594 162.652344 58.433594 125.039062 C 58.433594 87.421875 90.078125 56.816406 128.992188 56.816406 C 157.039062 56.796875 182.445312 72.945312 193.742188 97.972656 L 250.027344 81.761719 C 231.074219 32.636719 182.820312 0.152344 128.992188 0.28125 C 57.753906 0.28125 0 56.117188 0 125 C 0 193.882812 57.753906 249.71875 128.992188 249.71875 C 182.671875 249.828125 230.8125 217.511719 249.859375 168.578125 Z M 193.574219 152.4375 "/>
</g>
</svg>
